Newaita/actions/24/align-horizontal-right.svg

<svg height="24" viewBox="0 0 24 24" width="24" xmlns="http://www.w3.org/2000/svg"><g fill="#424242"><path d="m20.339844 2.171875c-.273438 0-.496094.222656-.496094.496094v18.855469c0 .273437.222656.496093.496094.496093.277344 0 .5-.222656.5-.496093v-18.855469c0-.273438-.222656-.496094-.5-.496094zm0 0"/><path d="m16.867188 3.660156c1.101562 0 1.984374.886719 1.984374 1.984375v3.96875c0 1.101563-.882812 1.984375-1.984374 1.984375h-11.90625c-1.097657 0-1.984376-.882812-1.984376-1.984375v-3.96875c0-1.097656.886719-1.984375 1.984376-1.984375zm-.496094 1.984375h-10.914063c-.273437 0-.496093.222657-.496093.496094v2.976563c0 .277343.222656.496093.496093.496093h10.914063c.277344 0 .496094-.21875.496094-.496093v-2.976563c0-.273437-.21875-.496094-.496094-.496094zm0 0"/><path d="m16.867188 13.582031c1.101562 0 1.984374.886719 1.984374 1.984375v2.976563c0 1.101562-.882812 1.988281-1.984374 1.988281h-5.953126c-1.097656 0-1.984374-.886719-1.984374-1.988281v-2.976563c0-1.097656.886718-1.984375 1.984374-1.984375zm-.496094 1.984375h-4.960938c-.273437 0-.496094.222656-.496094.496094v1.984375c0 .277344.222657.496094.496094.496094h4.960938c.277344 0 .496094-.21875.496094-.496094v-1.984375c0-.273438-.21875-.496094-.496094-.496094zm0 0"/></g></svg>

<svg xmlns="http://www.w3.org/2000/svg" xmlns:xlink="http://www.w3.org/1999/xlink" width="24px" height="24px" viewBox="0 0 24 24" version="1.1">
<g id="surface1">
     <defs>
  <style id="current-color-scheme" type="text/css">
   .ColorScheme-Text { color:#424242; } .ColorScheme-Highlight { color:#eeeeee; }
  </style>
 </defs>
<path style="fill:currentColor" class="ColorScheme-Text" d="M 20.339844 2.171875 C 20.066406 2.171875 19.84375 2.394531 19.84375 2.667969 L 19.84375 21.523438 C 19.84375 21.796875 20.066406 22.019531 20.339844 22.019531 C 20.617188 22.019531 20.839844 21.796875 20.839844 21.523438 L 20.839844 2.667969 C 20.839844 2.394531 20.617188 2.171875 20.339844 2.171875 Z M 20.339844 2.171875 "/>
     <defs>
  <style id="current-color-scheme" type="text/css">
   .ColorScheme-Text { color:#424242; } .ColorScheme-Highlight { color:#eeeeee; }
  </style>
 </defs>
<path style="fill:currentColor" class="ColorScheme-Text" d="M 16.867188 3.660156 C 17.96875 3.660156 18.851562 4.546875 18.851562 5.644531 L 18.851562 9.613281 C 18.851562 10.714844 17.96875 11.597656 16.867188 11.597656 L 4.960938 11.597656 C 3.863281 11.597656 2.976562 10.714844 2.976562 9.613281 L 2.976562 5.644531 C 2.976562 4.546875 3.863281 3.660156 4.960938 3.660156 Z M 16.371094 5.644531 L 5.457031 5.644531 C 5.183594 5.644531 4.960938 5.867188 4.960938 6.140625 L 4.960938 9.117188 C 4.960938 9.394531 5.183594 9.613281 5.457031 9.613281 L 16.371094 9.613281 C 16.648438 9.613281 16.867188 9.394531 16.867188 9.117188 L 16.867188 6.140625 C 16.867188 5.867188 16.648438 5.644531 16.371094 5.644531 Z M 16.371094 5.644531 "/>
     <defs>
  <style id="current-color-scheme" type="text/css">
   .ColorScheme-Text { color:#424242; } .ColorScheme-Highlight { color:#eeeeee; }
  </style>
 </defs>
<path style="fill:currentColor" class="ColorScheme-Text" d="M 16.867188 13.582031 C 17.96875 13.582031 18.851562 14.46875 18.851562 15.566406 L 18.851562 18.542969 C 18.851562 19.644531 17.96875 20.53125 16.867188 20.53125 L 10.914062 20.53125 C 9.816406 20.53125 8.929688 19.644531 8.929688 18.542969 L 8.929688 15.566406 C 8.929688 14.46875 9.816406 13.582031 10.914062 13.582031 Z M 16.371094 15.566406 L 11.410156 15.566406 C 11.136719 15.566406 10.914062 15.789062 10.914062 16.0625 L 10.914062 18.046875 C 10.914062 18.324219 11.136719 18.542969 11.410156 18.542969 L 16.371094 18.542969 C 16.648438 18.542969 16.867188 18.324219 16.867188 18.046875 L 16.867188 16.0625 C 16.867188 15.789062 16.648438 15.566406 16.371094 15.566406 Z M 16.371094 15.566406 "/>
</g>
</svg>
